Sources/Octicons.swift/Resources/Media.xcassets/globe-24.imageset/globe-24.svg

<svg xmlns="http://www.w3.org/2000/svg" viewBox="0 0 24 24" width="24" height="24">  <path fill-rule="evenodd" clip-rule="evenodd" d="M12 1C5.92487 1 1 5.92487 1 12C1 18.0751 5.92487 23 12 23C18.0751 23 23 18.0751 23 12C23 5.92487 18.0751 1 12 1ZM2.51293 11.5H7.25824C7.35853 8.46317 8.35738 6.00966 9.35123 4.29613C9.74121 3.62375 10.1317 3.06298 10.4696 2.62263C6.1109 3.32854 2.74627 7.00009 2.51293 11.5ZM7.28307 13H2.552C2.99867 17.2697 6.27348 20.6978 10.4695 21.3774C10.1317 20.937 9.7412 20.3763 9.35123 19.7039C8.41252 18.0854 7.46933 15.8068 7.28307 13ZM8.78678 13H15.2132C15.0302 15.4793 14.1929 17.5002 13.3512 18.9513C12.8754 19.7717 12.4005 20.4058 12.0475 20.8318L12 20.8888L11.9525 20.8318C11.5995 20.4058 11.1246 19.7717 10.6488 18.9513C9.80711 17.5002 8.96979 15.4793 8.78678 13ZM15.2408 11.5H8.75916C8.8586 8.79168 9.75121 6.59623 10.6488 5.04871C11.1246 4.22835 11.5995 3.59425 11.9525 3.16818L12 3.11124L12.0475 3.16818C12.4005 3.59425 12.8754 4.22835 13.3512 5.04871C14.2488 6.59623 15.1414 8.79168 15.2408 11.5ZM16.7169 13C16.5307 15.8068 15.5875 18.0854 14.6488 19.7039C14.2588 20.3763 13.8683 20.937 13.5305 21.3774C17.7265 20.6978 21.0013 17.2697 21.448 13H16.7169ZM21.4871 11.5H16.7418C16.6415 8.46316 15.6426 6.00966 14.6488 4.29613C14.2588 3.62375 13.8683 3.06298 13.5304 2.62263C17.8891 3.32854 21.2537 7.00009 21.4871 11.5Z"></path></svg>

<svg xmlns="http://www.w3.org/2000/svg" width="24" height="24" viewBox="0 0 24 24"><path d="M12 1c6.075 0 11 4.925 11 11s-4.925 11-11 11S1 18.075 1 12 5.925 1 12 1Zm3.241 10.5v-.001c-.1-2.708-.992-4.904-1.89-6.452a13.919 13.919 0 0 0-1.304-1.88L12 3.11l-.047.059c-.354.425-.828 1.06-1.304 1.88-.898 1.547-1.79 3.743-1.89 6.451Zm-12.728 0h4.745c.1-3.037 1.1-5.49 2.093-7.204.39-.672.78-1.233 1.119-1.673C6.11 3.329 2.746 7 2.513 11.5Zm18.974 0C21.254 7 17.89 3.329 13.53 2.623c.339.44.729 1.001 1.119 1.673.993 1.714 1.993 4.167 2.093 7.204ZM8.787 13c.182 2.478 1.02 4.5 1.862 5.953.382.661.818 1.29 1.304 1.88l.047.057.047-.059c.354-.425.828-1.06 1.304-1.88.842-1.451 1.679-3.471 1.862-5.951Zm-1.504 0H2.552a9.505 9.505 0 0 0 7.918 8.377 15.773 15.773 0 0 1-1.119-1.673C8.413 18.085 7.47 15.807 7.283 13Zm9.434 0c-.186 2.807-1.13 5.085-2.068 6.704-.39.672-.78 1.233-1.118 1.673A9.506 9.506 0 0 0 21.447 13Z"/></svg>
